Newaita-dark/apps/256/xt7-player-mpv.svg

<?xml version="1.0" encoding="UTF-8"?>
<svg xmlns="http://www.w3.org/2000/svg" xmlns:xlink="http://www.w3.org/1999/xlink" width="256pt" height="256pt" viewBox="0 0 256 256" version="1.1">
<defs>
<linearGradient id="linear0" gradientUnits="userSpaceOnUse" x1="254" y1="233.5" x2="254" y2="-168.666656" gradientTransform="matrix(0.500048,0,0,0.500048,0,107.510266)">
<stop offset="0" style="stop-color:rgb(74.117647%,74.117647%,74.117647%);stop-opacity:1;"/>
<stop offset="1" style="stop-color:rgb(93.333333%,93.333333%,93.333333%);stop-opacity:1;"/>
</linearGradient>
<linearGradient id="linear1" gradientUnits="userSpaceOnUse" x1="254" y1="233.5" x2="254" y2="254.666672" gradientTransform="matrix(0.500048,0,0,0.500048,-0.0000305205,107.510281)">
<stop offset="0" style="stop-color:rgb(0%,0%,0%);stop-opacity:0.27451;"/>
<stop offset="1" style="stop-color:rgb(0%,0%,0%);stop-opacity:0;"/>
</linearGradient>
<radialGradient id="radial0" gradientUnits="userSpaceOnUse" cx="450.908936" cy="189.579361" fx="450.908936" fy="189.579361" r="21.166656" gradientTransform="matrix(0.00000139336,-0.62506,-1.125108,-0.000000812309,424.98344,508.762661)">
<stop offset="0" style="stop-color:rgb(0%,0%,0%);stop-opacity:0.313725;"/>
<stop offset="0.222222" style="stop-color:rgb(0%,0%,0%);stop-opacity:0.27451;"/>
<stop offset="1" style="stop-color:rgb(0%,0%,0%);stop-opacity:0;"/>
</radialGradient>
<radialGradient id="radial1" gradientUnits="userSpaceOnUse" cx="450.908936" cy="189.579361" fx="450.908936" fy="189.579361" r="21.166656" gradientTransform="matrix(-0.00000139336,0.62506,1.125108,0.000000812309,-169.636162,-60.219831)">
<stop offset="0" style="stop-color:rgb(0%,0%,0%);stop-opacity:0.313725;"/>
<stop offset="0.222222" style="stop-color:rgb(0%,0%,0%);stop-opacity:0.27451;"/>
<stop offset="1" style="stop-color:rgb(0%,0%,0%);stop-opacity:0;"/>
</radialGradient>
<radialGradient id="radial2" gradientUnits="userSpaceOnUse" cx="450.908936" cy="189.579361" fx="450.908936" fy="189.579361" r="21.166656" gradientTransform="matrix(-0.00000139336,-0.62506,1.125108,-0.000000812309,-169.636162,508.762661)">
<stop offset="0" style="stop-color:rgb(0%,0%,0%);stop-opacity:0.313725;"/>
<stop offset="0.222222" style="stop-color:rgb(0%,0%,0%);stop-opacity:0.27451;"/>
<stop offset="1" style="stop-color:rgb(0%,0%,0%);stop-opacity:0;"/>
</radialGradient>
<radialGradient id="radial3" gradientUnits="userSpaceOnUse" cx="450.908936" cy="189.579361" fx="450.908936" fy="189.579361" r="21.166656" gradientTransform="matrix(0.00000139336,0.62506,-1.125108,0.000000812309,424.983428,-60.219835)">
<stop offset="0" style="stop-color:rgb(0%,0%,0%);stop-opacity:0.313725;"/>
<stop offset="0.222222" style="stop-color:rgb(0%,0%,0%);stop-opacity:0.27451;"/>
<stop offset="1" style="stop-color:rgb(0%,0%,0%);stop-opacity:0;"/>
</radialGradient>
<linearGradient id="linear2" gradientUnits="userSpaceOnUse" x1="254" y1="233.5" x2="254" y2="-168.666656" gradientTransform="matrix(0.500048,0,0,0.500048,0,107.510263)">
<stop offset="0" style="stop-color:rgb(25.882353%,25.882353%,25.882353%);stop-opacity:1;"/>
<stop offset="1" style="stop-color:rgb(38.039216%,38.039216%,38.039216%);stop-opacity:1;"/>
</linearGradient>
<linearGradient id="linear3" gradientUnits="userSpaceOnUse" x1="370.416656" y1="159.416672" x2="370.416656" y2="180.583328" gradientTransform="matrix(1,0,0,1,0,10.583338)">
<stop offset="0" style="stop-color:rgb(87.843137%,87.843137%,87.843137%);stop-opacity:1;"/>
<stop offset="1" style="stop-color:rgb(98.039216%,98.039216%,98.039216%);stop-opacity:1;"/>
</linearGradient>
<linearGradient id="linear4" gradientUnits="userSpaceOnUse" x1="211.666672" y1="159.416672" x2="211.666672" y2="180.583328" gradientTransform="matrix(1,0,0,1,0,10.583338)">
<stop offset="0" style="stop-color:rgb(89.803922%,22.352941%,20.784314%);stop-opacity:1;"/>
<stop offset="1" style="stop-color:rgb(93.72549%,32.54902%,31.372549%);stop-opacity:1;"/>
</linearGradient>
<linearGradient id="linear5" gradientUnits="userSpaceOnUse" x1="285.75" y1="138.25" x2="285.75" y2="201.75" gradientTransform="matrix(1,0,0,1,26.458323,10.583338)">
<stop offset="0" style="stop-color:rgb(87.843137%,87.843137%,87.843137%);stop-opacity:1;"/>
<stop offset="1" style="stop-color:rgb(98.039216%,98.039216%,98.039216%);stop-opacity:1;"/>
</linearGradient>
<linearGradient id="linear6" gradientUnits="userSpaceOnUse" x1="254" y1="53.583332" x2="254" y2="-105.166656" gradientTransform="matrix(0.500048,0,0,0.500048,-2.671927,108.847903)">
<stop offset="0" style="stop-color:rgb(25.882353%,25.882353%,25.882353%);stop-opacity:1;"/>
<stop offset="1" style="stop-color:rgb(38.039216%,38.039216%,38.039216%);stop-opacity:1;"/>
</linearGradient>
</defs>
<g id="surface1">
<path style=" stroke:none;fill-rule:nonzero;fill:url(#linear0);" d="M 26.460938 23.167969 L 227.5625 23.167969 C 233.410156 23.167969 238.148438 27.90625 238.148438 33.753906 L 238.148438 213.6875 C 238.148438 219.53125 233.410156 224.269531 227.5625 224.269531 L 26.460938 224.269531 C 20.617188 224.269531 15.875 219.53125 15.875 213.6875 L 15.875 33.753906 C 15.875 27.90625 20.617188 23.167969 26.460938 23.167969 Z M 26.460938 23.167969 "/>
<path style=" stroke:none;fill-rule:nonzero;fill:url(#linear1);" d="M 41.015625 224.269531 L 214.332031 224.269531 L 214.332031 234.855469 L 41.015625 234.855469 Z M 41.015625 224.269531 "/>
<path style=" stroke:none;fill-rule:nonzero;fill:url(#radial0);" d="M 214.332031 224.269531 L 235.5 224.269531 L 235.5 213.6875 L 214.332031 213.6875 Z M 214.332031 224.269531 "/>
<path style=" stroke:none;fill-rule:nonzero;fill:url(#radial1);" d="M 41.015625 224.269531 L 19.84375 224.269531 L 19.84375 234.855469 L 41.015625 234.855469 Z M 41.015625 224.269531 "/>
<path style=" stroke:none;fill-rule:nonzero;fill:url(#radial2);" d="M 41.015625 224.269531 L 19.84375 224.269531 L 19.84375 213.6875 L 41.015625 213.6875 Z M 41.015625 224.269531 "/>
<path style=" stroke:none;fill-rule:nonzero;fill:url(#radial3);" d="M 214.332031 224.269531 L 235.5 224.269531 L 235.5 234.855469 L 214.332031 234.855469 Z M 214.332031 224.269531 "/>
<path style=" stroke:none;fill-rule:nonzero;fill:url(#linear2);" d="M 15.875 170.027344 L 15.875 213.6875 C 15.875 219.550781 20.597656 224.273438 26.460938 224.273438 L 227.5625 224.273438 C 233.425781 224.273438 238.148438 219.550781 238.148438 213.6875 L 238.148438 170.027344 Z M 15.875 170.027344 "/>
<path style="fill-rule:nonzero;fill:url(#linear3);stroke-width:3;stroke-linecap:round;stroke-linejoin:miter;stroke:rgb(12.941177%,12.941177%,12.941177%);stroke-opacity:1;stroke-miterlimit:4;" d="M 74.086675 170.002297 L 433.9195 170.002297 C 439.762692 170.002297 444.496615 174.73622 444.496615 180.587223 C 444.496615 186.430415 439.762692 191.164338 433.9195 191.164338 L 74.086675 191.164338 C 68.235671 191.164338 63.501748 186.430415 63.501748 180.587223 C 63.501748 174.73622 68.235671 170.002297 74.086675 170.002297 Z M 74.086675 170.002297 " transform="matrix(0.500048,0,0,0.500048,0,107.510266)"/>
<path style="fill-rule:nonzero;fill:url(#linear4);stroke-width:3;stroke-linecap:round;stroke-linejoin:miter;stroke:rgb(12.941177%,12.941177%,12.941177%);stroke-opacity:1;stroke-miterlimit:4;" d="M 74.086675 170.002297 L 338.662972 170.002297 C 344.513976 170.002297 349.247898 174.298761 349.247898 179.602942 L 349.247898 181.563693 C 349.247898 186.867874 344.513976 191.164338 338.662972 191.164338 L 74.086675 191.164338 C 68.235671 191.164338 63.501748 186.867874 63.501748 181.563693 L 63.501748 179.602942 C 63.501748 174.298761 68.235671 170.002297 74.086675 170.002297 Z M 74.086675 170.002297 " transform="matrix(0.500048,0,0,0.500048,0,107.510266)"/>
<path style="fill-rule:nonzero;fill:url(#linear5);stroke-width:3;stroke-linecap:round;stroke-linejoin:miter;stroke:rgb(12.941177%,12.941177%,12.941177%);stroke-opacity:1;stroke-miterlimit:4;" d="M 322.789488 148.832443 C 340.326875 148.832443 354.544268 163.049836 354.544268 180.587223 C 354.544268 198.116799 340.326875 212.334192 322.789488 212.334192 C 305.259912 212.334192 291.042519 198.116799 291.042519 180.587223 C 291.042519 163.049836 305.259912 148.832443 322.789488 148.832443 Z M 322.789488 148.832443 " transform="matrix(0.500048,0,0,0.500048,0,107.510266)"/>
<path style=" stroke:none;fill-rule:nonzero;fill:rgb(100%,100%,100%);fill-opacity:0.988235;" d="M 26.460938 23.167969 C 20.597656 23.167969 15.875 27.890625 15.875 33.753906 L 15.875 36.398438 C 15.875 30.535156 20.597656 25.816406 26.460938 25.816406 L 227.5625 25.816406 C 233.425781 25.816406 238.148438 30.535156 238.148438 36.398438 L 238.148438 33.753906 C 238.148438 27.890625 233.425781 23.167969 227.5625 23.167969 Z M 26.460938 23.167969 "/>
<path style=" stroke:none;fill-rule:nonzero;fill:rgb(0%,0%,0%);fill-opacity:0.235294;" d="M 26.460938 224.269531 C 20.597656 224.269531 15.875 219.550781 15.875 213.6875 L 15.875 211.039062 C 15.875 216.90625 20.597656 221.625 26.460938 221.625 L 227.5625 221.625 C 233.425781 221.625 238.148438 216.90625 238.148438 211.039062 L 238.148438 213.6875 C 238.148438 219.550781 233.425781 224.269531 227.5625 224.269531 Z M 26.460938 224.269531 "/>
<path style=" stroke:none;fill-rule:nonzero;fill:url(#linear6);" d="M 103.347656 56.289062 C 100.371094 56.1875 97.90625 58.574219 97.90625 61.550781 L 97.90625 130.351562 C 97.90625 134.425781 102.339844 136.957031 105.851562 134.882812 L 164.066406 100.484375 C 167.511719 98.445312 167.511719 93.457031 164.066406 91.417969 L 105.851562 57.019531 C 105.089844 56.570312 104.230469 56.316406 103.347656 56.289062 Z M 103.347656 56.289062 "/>
<path style=" stroke:none;fill-rule:nonzero;fill:rgb(100%,100%,100%);fill-opacity:0.235294;" d="M 103.070312 56.285156 C 100.222656 56.339844 97.90625 58.667969 97.90625 61.550781 L 97.90625 64.167969 C 97.90625 61.191406 100.371094 58.804688 103.347656 58.90625 C 104.230469 58.933594 105.089844 59.1875 105.851562 59.636719 L 164.066406 94.035156 C 165.355469 94.796875 166.164062 95.976562 166.488281 97.257812 C 167.027344 95.121094 166.222656 92.691406 164.066406 91.417969 L 105.851562 57.019531 C 105.089844 56.570312 104.230469 56.316406 103.347656 56.289062 C 103.257812 56.285156 103.164062 56.285156 103.070312 56.285156 Z M 103.070312 56.285156 "/>
<path style=" stroke:none;fill-rule:nonzero;fill:rgb(0%,0%,0%);fill-opacity:0.235294;" d="M 103.070312 135.640625 C 100.222656 135.589844 97.90625 133.261719 97.90625 130.375 L 97.90625 127.757812 C 97.90625 130.738281 100.371094 133.121094 103.347656 133.023438 C 104.230469 132.992188 105.089844 132.742188 105.851562 132.292969 L 164.066406 97.894531 C 165.355469 97.128906 166.164062 95.953125 166.488281 94.667969 C 167.027344 96.808594 166.222656 99.238281 164.066406 100.511719 L 105.851562 134.910156 C 105.089844 135.359375 104.230469 135.609375 103.347656 135.640625 C 103.257812 135.644531 103.164062 135.644531 103.070312 135.640625 Z M 103.070312 135.640625 "/>
<path style=" stroke:none;fill-rule:nonzero;fill:rgb(12.941177%,12.941177%,12.941177%);fill-opacity:1;" d="M 103.375 55.539062 C 99.984375 55.425781 97.15625 58.160156 97.15625 61.550781 L 97.15625 130.351562 C 97.15625 134.972656 102.253906 137.878906 106.234375 135.53125 L 164.445312 101.128906 C 168.355469 98.820312 168.355469 93.082031 164.445312 90.769531 L 106.234375 56.371094 C 105.363281 55.859375 104.382812 55.570312 103.375 55.539062 Z M 103.324219 57.039062 C 104.078125 57.0625 104.816406 57.277344 105.46875 57.664062 L 163.683594 92.0625 C 166.671875 93.828125 166.671875 98.074219 163.683594 99.839844 L 105.46875 134.238281 C 102.425781 136.035156 98.65625 133.882812 98.65625 130.351562 L 98.65625 61.550781 C 98.65625 58.988281 100.761719 56.953125 103.324219 57.039062 Z M 103.324219 57.039062 "/>
<path style=" stroke:none;fill-rule:nonzero;fill:rgb(0%,0%,0%);fill-opacity:0.627451;" d="M 15.875 167.234375 L 238.148438 167.234375 L 238.148438 170.09375 L 15.875 170.09375 Z M 15.875 167.234375 "/>
<path style=" stroke:none;fill-rule:nonzero;fill:rgb(0%,0%,0%);fill-opacity:0.235294;" d="M 15.875 164.734375 L 238.148438 164.734375 L 238.148438 167.445312 L 15.875 167.445312 Z M 15.875 164.734375 "/>
<path style=" stroke:none;fill-rule:nonzero;fill:rgb(97.254902%,97.254902%,97.254902%);fill-opacity:0.313725;" d="M 15.875 170.027344 L 238.148438 170.027344 L 238.148438 172.738281 L 15.875 172.738281 Z M 15.875 170.027344 "/>
<path style=" stroke:none;fill-rule:nonzero;fill:rgb(12.941177%,12.941177%,12.941177%);fill-opacity:1;" d="M 26.460938 22.417969 C 20.195312 22.417969 15.125 27.488281 15.125 33.753906 L 15.125 213.6875 C 15.125 219.953125 20.195312 225.023438 26.460938 225.023438 L 227.5625 225.023438 C 233.828125 225.023438 238.898438 219.953125 238.898438 213.6875 L 238.898438 33.753906 C 238.898438 27.488281 233.828125 22.417969 227.5625 22.417969 Z M 26.460938 23.917969 L 227.5625 23.917969 C 233.023438 23.917969 237.398438 28.292969 237.398438 33.753906 L 237.398438 213.6875 C 237.398438 219.148438 233.023438 223.519531 227.5625 223.519531 L 26.460938 223.519531 C 21 223.519531 16.625 219.148438 16.625 213.6875 L 16.625 33.753906 C 16.625 28.292969 21 23.917969 26.460938 23.917969 Z M 26.460938 23.917969 "/>
</g>
</svg>

<svg xmlns="http://www.w3.org/2000/svg" width="256pt" height="256pt" viewBox="0 0 256 256"><defs><linearGradient id="a" gradientUnits="userSpaceOnUse" x1="254" y1="233.5" x2="254" y2="-168.667" gradientTransform="matrix(.50005 0 0 .50005 0 107.51)"><stop offset="0" stop-color="#bdbdbd"/><stop offset="1" stop-color="#eee"/></linearGradient><linearGradient id="b" gradientUnits="userSpaceOnUse" x1="254" y1="233.5" x2="254" y2="254.667" gradientTransform="matrix(.50005 0 0 .50005 0 107.51)"><stop offset="0" stop-opacity=".275"/><stop offset="1" stop-opacity="0"/></linearGradient><radialGradient id="c" gradientUnits="userSpaceOnUse" cx="450.909" cy="189.579" fx="450.909" fy="189.579" r="21.167" gradientTransform="matrix(0 -.62506 -1.1251 0 424.983 508.763)"><stop offset="0" stop-opacity=".314"/><stop offset=".222" stop-opacity=".275"/><stop offset="1" stop-opacity="0"/></radialGradient><radialGradient id="d" gradientUnits="userSpaceOnUse" cx="450.909" cy="189.579" fx="450.909" fy="189.579" r="21.167" gradientTransform="matrix(0 .62506 1.1251 0 -169.636 -60.22)"><stop offset="0" stop-opacity=".314"/><stop offset=".222" stop-opacity=".275"/><stop offset="1" stop-opacity="0"/></radialGradient><radialGradient id="e" gradientUnits="userSpaceOnUse" cx="450.909" cy="189.579" fx="450.909" fy="189.579" r="21.167" gradientTransform="matrix(0 -.62506 1.1251 0 -169.636 508.763)"><stop offset="0" stop-opacity=".314"/><stop offset=".222" stop-opacity=".275"/><stop offset="1" stop-opacity="0"/></radialGradient><radialGradient id="f" gradientUnits="userSpaceOnUse" cx="450.909" cy="189.579" fx="450.909" fy="189.579" r="21.167" gradientTransform="matrix(0 .62506 -1.1251 0 424.983 -60.22)"><stop offset="0" stop-opacity=".314"/><stop offset=".222" stop-opacity=".275"/><stop offset="1" stop-opacity="0"/></radialGradient><linearGradient id="g" gradientUnits="userSpaceOnUse" x1="254" y1="233.5" x2="254" y2="-168.667" gradientTransform="matrix(.50005 0 0 .50005 0 107.51)"><stop offset="0" stop-color="#424242"/><stop offset="1" stop-color="#616161"/></linearGradient><linearGradient id="h" gradientUnits="userSpaceOnUse" x1="370.417" y1="159.417" x2="370.417" y2="180.583" gradientTransform="translate(0 10.583)"><stop offset="0" stop-color="#e0e0e0"/><stop offset="1" stop-color="#fafafa"/></linearGradient><linearGradient id="i" gradientUnits="userSpaceOnUse" x1="211.667" y1="159.417" x2="211.667" y2="180.583" gradientTransform="translate(0 10.583)"><stop offset="0" stop-color="#e53935"/><stop offset="1" stop-color="#ef5350"/></linearGradient><linearGradient id="j" gradientUnits="userSpaceOnUse" x1="285.75" y1="138.25" x2="285.75" y2="201.75" gradientTransform="translate(26.458 10.583)"><stop offset="0" stop-color="#e0e0e0"/><stop offset="1" stop-color="#fafafa"/></linearGradient><linearGradient id="k" gradientUnits="userSpaceOnUse" x1="254" y1="53.583" x2="254" y2="-105.167" gradientTransform="matrix(.50005 0 0 .50005 -2.672 108.848)"><stop offset="0" stop-color="#424242"/><stop offset="1" stop-color="#616161"/></linearGradient></defs><path d="M26.46 23.168h201.102c5.848 0 10.586 4.738 10.586 10.586v179.934c0 5.843-4.738 10.582-10.585 10.582H26.46c-5.844 0-10.586-4.739-10.586-10.583V33.755c0-5.848 4.742-10.586 10.586-10.586zm0 0" fill="url(#a)"/><path d="M41.016 224.27h173.316v10.585H41.016zm0 0" fill="url(#b)"/><path d="M214.332 224.27H235.5v-10.583h-21.168zm0 0" fill="url(#c)"/><path d="M41.016 224.27H19.844v10.585h21.172zm0 0" fill="url(#d)"/><path d="M41.016 224.27H19.844v-10.583h21.172zm0 0" fill="url(#e)"/><path d="M214.332 224.27H235.5v10.585h-21.168zm0 0" fill="url(#f)"/><path d="M15.875 170.027v43.66a10.564 10.564 0 0 0 10.586 10.586h201.101a10.564 10.564 0 0 0 10.586-10.585v-43.66zm0 0" fill="url(#g)"/><path d="M74.087 170.002h359.832c5.844 0 10.578 4.734 10.578 10.585 0 5.843-4.734 10.577-10.577 10.577H74.087c-5.851 0-10.585-4.734-10.585-10.577a10.578 10.578 0 0 1 10.585-10.585zm0 0" transform="matrix(.50005 0 0 .50005 0 107.51)" fill="url(#h)" stroke-width="3" stroke-linecap="round" stroke="#212121"/><path d="M74.087 170.002h264.576c5.851 0 10.585 4.297 10.585 9.6v1.962c0 5.304-4.734 9.6-10.585 9.6H74.087c-5.851 0-10.585-4.296-10.585-9.6v-1.961c0-5.304 4.734-9.6 10.585-9.6zm0 0" transform="matrix(.50005 0 0 .50005 0 107.51)" fill="url(#i)" stroke-width="3" stroke-linecap="round" stroke="#212121"/><path d="M322.79 148.832c17.537 0 31.754 14.218 31.754 31.755 0 17.53-14.217 31.747-31.755 31.747-17.53 0-31.746-14.217-31.746-31.747 0-17.537 14.217-31.755 31.746-31.755zm0 0" transform="matrix(.50005 0 0 .50005 0 107.51)" fill="url(#j)" stroke-width="3" stroke-linecap="round" stroke="#212121"/><path d="M26.46 23.168a10.564 10.564 0 0 0-10.585 10.586v2.644a10.561 10.561 0 0 1 10.586-10.582h201.101a10.561 10.561 0 0 1 10.586 10.582v-2.644a10.564 10.564 0 0 0-10.585-10.586zm0 0" fill="#fff" fill-opacity=".988"/><path d="M26.46 224.27a10.561 10.561 0 0 1-10.585-10.583v-2.648a10.562 10.562 0 0 0 10.586 10.586h201.101a10.562 10.562 0 0 0 10.586-10.586v2.649a10.561 10.561 0 0 1-10.585 10.582zm0 0" fill-opacity=".235"/><path d="M103.348 56.29a5.263 5.263 0 0 0-5.442 5.26v68.802c0 4.074 4.434 6.605 7.946 4.53l58.214-34.398c3.446-2.039 3.446-7.027 0-9.066L105.852 57.02a5.249 5.249 0 0 0-2.504-.73zm0 0" fill="url(#k)"/><path d="M103.07 56.285a5.27 5.27 0 0 0-5.164 5.266v2.617a5.263 5.263 0 0 1 7.946-4.531l58.214 34.398a5.199 5.199 0 0 1 2.422 3.223c.54-2.137-.265-4.567-2.422-5.84L105.852 57.02a5.249 5.249 0 0 0-2.504-.73c-.09-.005-.184-.005-.278-.005zm0 0" fill="#fff" fill-opacity=".235"/><path d="M103.07 135.64a5.265 5.265 0 0 1-5.164-5.265v-2.617a5.266 5.266 0 0 0 7.946 4.535l58.214-34.398a5.206 5.206 0 0 0 2.422-3.227c.54 2.14-.265 4.57-2.422 5.844l-58.214 34.398a5.293 5.293 0 0 1-2.782.73zm0 0" fill-opacity=".235"/><path d="M103.375 55.54c-3.39-.114-6.219 2.62-6.219 6.01v68.802c0 4.62 5.098 7.527 9.078 5.18l58.211-34.403c3.91-2.309 3.91-8.047 0-10.36l-58.21-34.398a6.011 6.011 0 0 0-2.86-.832zm-.05 1.5a4.48 4.48 0 0 1 2.144.624l58.215 34.398a4.494 4.494 0 0 1 0 7.778l-58.215 34.398a4.492 4.492 0 0 1-6.813-3.886V61.55a4.503 4.503 0 0 1 4.668-4.512zm0 0" fill="#212121"/><path d="M15.875 167.234h222.273v2.86H15.875zm0 0" fill-opacity=".627"/><path d="M15.875 164.734h222.273v2.711H15.875zm0 0" fill-opacity=".235"/><path d="M15.875 170.027h222.273v2.711H15.875zm0 0" fill="#f8f8f8" fill-opacity=".314"/><path d="M26.46 22.418a11.33 11.33 0 0 0-11.335 11.336v179.934a11.33 11.33 0 0 0 11.336 11.335h201.101a11.33 11.33 0 0 0 11.336-11.335V33.754a11.33 11.33 0 0 0-11.335-11.336zm0 1.5h201.102a9.8 9.8 0 0 1 9.836 9.836v179.934a9.796 9.796 0 0 1-9.835 9.832H26.46a9.796 9.796 0 0 1-9.836-9.833V33.755a9.8 9.8 0 0 1 9.836-9.836zm0 0" fill="#212121"/></svg>
